X:1522
T:Murtough Mulloy
R:reel
N:"collected from McFadden"
B:"O'Neill's Dance Music of Ireland, 1522"
T: muir.cearta.c ua mael.muai.d.
Z:transcribed by John B. Walsh, walsh@math.ubc.ca 8/23/96
M:C|
L:1/8
K:Em
(B,E)(EF) (GB)AG|FDAD BDAD|GFEF GAB^c|1 dBAF GE E z:|2 d^cdBe2 ef||
gfef gbag|fdad bdad|gfef gbag|fe^de feef|
gfef gbag|fdad bdad|gfef gfe^c|dBAF GE E z||


